img/auth-twitter.svg

<svg width="26" height="26" viewBox="0 0 26 26" fill="none" xmlns="http://www.w3.org/2000/svg">
<path d="M0.919922 13.44C0.919922 6.54745 6.50741 0.959961 13.3999 0.959961C20.2924 0.959961 25.8799 6.54745 25.8799 13.44C25.8799 20.3325 20.2924 25.92 13.3999 25.92C6.50741 25.92 0.919922 20.3325 0.919922 13.44Z" fill="#55ACEE"/>
<path d="M13.0261 11.1039L13.0523 11.5357L12.6159 11.4829C11.0271 11.2802 9.63909 10.5927 8.46061 9.43824L7.88446 8.8654L7.73606 9.28842C7.4218 10.2314 7.62258 11.2273 8.27729 11.8971C8.62647 12.2672 8.5479 12.3201 7.94557 12.0998C7.73606 12.0293 7.55274 11.9764 7.53528 12.0028C7.47417 12.0645 7.68368 12.8665 7.84954 13.1838C8.07651 13.6244 8.53917 14.0562 9.04548 14.3118L9.47323 14.5145L8.96692 14.5233C8.47807 14.5233 8.46061 14.5321 8.51298 14.7172C8.68757 15.2901 9.37721 15.8982 10.1454 16.1626L10.6866 16.3476L10.2152 16.6296C9.51688 17.035 8.6963 17.2642 7.87573 17.2818C7.4829 17.2906 7.15991 17.3259 7.15991 17.3523C7.15991 17.4404 8.22491 17.934 8.84471 18.1278C10.7041 18.7007 12.9127 18.4539 14.5713 17.4757C15.7497 16.7795 16.9282 15.3958 17.4782 14.0562C17.775 13.3424 18.0718 12.0381 18.0718 11.4124C18.0718 11.007 18.098 10.9541 18.5868 10.4694C18.8749 10.1873 19.1455 9.87889 19.1979 9.79076C19.2852 9.62332 19.2765 9.62332 18.8313 9.77314C18.0892 10.0375 17.9845 10.0023 18.3511 9.60569C18.6217 9.32368 18.9447 8.81252 18.9447 8.6627C18.9447 8.63626 18.8138 8.68033 18.6654 8.75965C18.5083 8.84777 18.1591 8.97997 17.8972 9.05929L17.4258 9.20911L16.9981 8.91828C16.7624 8.75965 16.4306 8.58339 16.2561 8.53051C15.8108 8.40713 15.1299 8.42475 14.7284 8.56576C13.6372 8.96234 12.9476 9.98465 13.0261 11.1039Z" fill="white"/>
</svg>

<svg width="26" height="26" fill="none" xmlns="http://www.w3.org/2000/svg"><path d="M.92 13.44C.92 6.547 6.507.96 13.4.96c6.892 0 12.48 5.587 12.48 12.48 0 6.893-5.588 12.48-12.48 12.48C6.507 25.92.92 20.332.92 13.44Z" fill="#55ACEE"/><path d="m13.026 11.104.026.432-.436-.053c-1.589-.203-2.977-.89-4.155-2.045l-.577-.573-.148.423c-.314.943-.113 1.94.541 2.61.35.37.27.422-.331.202-.21-.07-.393-.124-.41-.097-.062.062.148.864.314 1.18.227.441.69.873 1.195 1.129l.428.203-.506.008c-.489 0-.506.01-.454.194.175.573.864 1.181 1.632 1.446l.542.185-.472.282a4.914 4.914 0 0 1-2.34.652c-.392.009-.715.044-.715.07 0 .088 1.065.582 1.685.776 1.86.573 4.068.326 5.726-.652 1.179-.697 2.357-2.08 2.907-3.42.297-.714.594-2.018.594-2.644 0-.405.026-.458.515-.943.288-.282.558-.59.61-.678.088-.168.08-.168-.366-.018-.742.264-.846.23-.48-.167.27-.282.594-.793.594-.943 0-.027-.131.017-.28.097a4.87 4.87 0 0 1-.768.3l-.471.15-.428-.292c-.236-.158-.567-.335-.742-.387-.445-.124-1.126-.106-1.528.035-1.09.396-1.78 1.419-1.702 2.538Z" fill="#fff"/></svg>
